X:1
T:G Major Samuel Holyoke, 1807
T:Anne Steele, 1760 (Psalm 145)                          86. 86. (C. M.)
T:Arkham Transcribed from The Vocal Companion, 1807.
%%score [ 1 2 3 4 ]
L:1/8
Q:1/4=150
M:2/2
K:G
V:1 treble nm="Voice"
V:2 treble nm="Voice"
V:3 treble-8 nm="Tenor"
V:4 bass nm="Bass"
V:1
"^3. Thy  king – dom,  Lord,  for–ev–er stands,   While earthly thrones decay;                                                                                                                  And""^2. Thy  power  and goodness they shall sing,   The   glories   of   thy    reign;                                                                                                                    Thy""^1. Great God, while nature speaks thy praise, With all her numerous tongues;                                                                                                               Thy" B4 d2 d2 | %1
 d2 d2 d2 ^c2 | d6 A2 | B2 A2 G2 F2 | G6 z2 | z8 | z8 | z4 z2 A2 | %8
"^1. saints  shall  tune  di–vi–ner lays.""^2. wondrous  deeds,  almighty King,""^3. time  submits  to  thy  commands" d2 ^c2 d2 =c2 | %9
 B2 A2 B2 z2 | z8 | z8 | %12
 z4 z2"^1. And love inspire  their songs.   Thy saints shall tune di–""^2. Shall  fill  the  raptured strain.   Thy wondrous deeds, al–""^3. While    a – ges  roll  a  –  way.     And  time  submits   to" f2 | %13
 a2 f2 d2 ^c2 | d6 A2 | B2 B2 B2 d2 | %16
"^1. –vi – ner  lays.  And    love ______   in – spire   their   songs.""^2. –migh–ty King, Shall   fill ________   the    rap – tured  strain.""^3. thy commands  While  a        –        ges    roll      a     –    way." c2 c2 c2 c2 | %17
 (B2 G2 d2) e2 | d4 c4 | B8 |] %20
V:2
 D4 D2 G2 | F2 G2 D2 G2 | F6 F2 | G2 E2 D2 D2 | D6 z2 | z8 | %6
 z4 z2"^1. Thy saints shall tune, Thy""^2. Thy wondrous deeds, Thy""^3. And time sub – mits, And" D2 | %7
 G2 F2 G2 F2 | %8
"^1. saints  shall  tune  di–vi–ner lays.                                                                 And love inspire, And love inspire  their songs.""^2. wondrous  deeds,  almighty King,                                                                Shall  fill  the raptured,   fill the rap–tured strain.""^3. time sub–mits to thy commands,                                                                 While  a–ges  roll, While  a – ges  roll   a   –   way." F2 E2 F2 F2 | %9
 G2 F2 G2 z2 | z8 | z4 z2 E2 | F2 A2 F2 D2 | A2 A2 A2 G2 | F6 F2 | G2 G2 G2 G2 | G2 G2 G2 A2 | %17
 G6 G2 | G4 F4 | G8 |] %20
V:3
"^1. Great God, while nature speaks thy praise, With all her numerous tongues;  Thy saints shall tune di–vi–ner lays,  di –  vi   –   ner  lays, Thy""^2. Thy  power  and goodness they shall sing,   The   glories   of   thy    reign;       Thy wondrous deeds, almighty King,  al – migh – ty  King,  Thy""^3. Thy  king – dom,  Lord,  for–ev–er stands,   While earthly thrones decay;      And time submits to thy commands,   to  thy  commands,   And" G4 B2 d2 | %1
 c2 B2 A2 G2 | d6 d2 | d2 c2 B2 A2 | G6 A2 | d2 ^c2 d2 =c2 | B2 A2 B2 A2 | B^c d2 d2 d2 | %8
"^1. saints shall tune di-vi-ner lays, And love inspire their songs,            And     love               in  –  spire           their songs.  Thy saints shall tune di–""^2. wondrous deeds, almighty King,  Shall fill the raptured strain.            Shall     fill                 the    rap     –    tured  strain.  Thy wondrous deeds, al–""^3. time submits to thy commands,  While  a – ges   roll  a  –  way.            While   a         –        ges     roll                  a  –  way.   And  time submits to thy" A2 A2 A2 A2 | %9
 d2 d2 d2 d2 | e2 c2 A2 ^c2 | d6 ^c2 | d6 d2 | d6 e2 | d6 d2 | d2 d2 d2 d2 | %16
"^1. –vi – ner  lays.  And    love ______   in – spire   their   songs.""^3. thy commands  While  a        –        ges    roll      a     –    way.""^2. –migh–ty King, Shall   fill ________   the    rap – tured  strain." e2 e2 e2 f2 | %17
 (g2 d4) c2 | B4 A4 | G8 |] %20
V:4
 G,4 G,2 B,2 | A,2 G,2 F,2 E,2 | D,6 C,2 | B,,2 C,2 D,2 D,2 | G,,6 z2 | %5
 z4 z2"^1. Thy saints shall tune di–vi  –  ner  lays, Thy""^2. Thy wondrous deeds, al–migh–ty King, Thy""^3. And  time  submits  to  thy  commands,  And" D,2 | %6
 G,2 F,2 G,2 F,2 | E,2 D,2 G,2 D,2 | %8
"^1. saints shall tune di–vi–ner lays.                                   And love inspire their songs,           And  love  inspire their songs.""^2. wondrous deeds, almighty King,                                   Shall  fill  the raptured strain,           Shall fill  the  raptured   strain.""^3. time  submits  to thy commands,                                   While  a – ges  roll   a – way,              While  a – ges   roll   a  –  way." D,2 A,,2 D,2 D,2 | %9
 D,2 D,2 G,2 z2 | z4 z2 A,2 | F,2 D,2 F,2 A,2 | D,6 D,2 | F,2 D,2 F,2 A,2 | D6 D,2 | %15
 G,2 G,2 G,2 B,2 | C2 C2 C2 A,2 | B,6 C2 | D4 D,4 | [G,,G,]8 |] %20

